elements/rpg-character/lib/hat/education.svg

<svg width="113" height="142" viewBox="0 0 113 142" fill="none" xmlns="http://www.w3.org/2000/svg">
<path d="M18 27H23V26H8V21H18V16H28V11H43V6H68V11H83V16H93V21H103V26H88V27H93V47H68V53.5H63V57H58V60H48V57H43V52H38V47H18V27Z" fill="#2F2D97"/>
<path d="M33 26H23H8V21H18V16H28V11H43V6H68V11H83V16H93V21H103V26H78V21H63V16H48V21H33V26Z" fill="#1B1A74"/>
<path d="M38 57V52H43V57H48V60H58V57H63V53.5H68V47H93V27H88V26H103V21H93V16H83V11H68V6H43V11H28V16H18V21H8V26H23V27H18V47H13V31H8V26H3V21H8V16H18V11H28V6H43V1H68V6H83V11H93V16H103V21H108V26H103V31H98V47H93V53.5H68V57H63V60H58V65H48V60H43V57H38Z" fill="black"/>
<path d="M38 52V47H18V52H38Z" fill="black"/>
<path d="M74.5 31.5V24H78.5V31.5H74.5Z" fill="#D7D3D3"/>
<path d="M79 19H74V24H79V19Z" fill="#E8E3E3"/>
<path d="M74.25 24V32M75.75 24V33M77.25 24V33M78.75 24V32" stroke="#E8E3E3"/>
<path d="M74 24H79M75.5 19H77.5" stroke="#DBB83B"/>
<path d="M72.5 5.5V8H73.5V10H74.5V12.5H75.5V16.5H76.5V19" stroke="#665F47"/>
</svg>

<svg xmlns="http://www.w3.org/2000/svg" fill="none" width="113" height="142" viewBox="0 0 113 142"><path d="M18 27h5v-1H8v-5h10v-5h10v-5h15V6h25v5h15v5h10v5h10v5H88v1h5v20H68v6.5h-5V57h-5v3H48v-3h-5v-5h-5v-5H18V27Z" fill="#2F2D97"/><path d="M33 26H8v-5h10v-5h10v-5h15V6h25v5h15v5h10v5h10v5H78v-5H63v-5H48v5H33v5Z" fill="#1B1A74"/><path d="M38 57v-5h5v5h5v3h10v-3h5v-3.5h5V47h25V27h-5v-1h15v-5H93v-5H83v-5H68V6H43v5H28v5H18v5H8v5h15v1h-5v20h-5V31H8v-5H3v-5h5v-5h10v-5h10V6h15V1h25v5h15v5h10v5h10v5h5v5h-5v5h-5v16h-5v6.5H68V57h-5v3h-5v5H48v-5h-5v-3h-5Z" fill="#000"/><path d="M38 52v-5H18v5h20Z" fill="#000"/><path d="M74.5 31.5V24h4v7.5h-4Z" fill="#D7D3D3"/><path d="M79 19h-5v5h5v-5Z" fill="#E8E3E3"/><path d="M74.25 24v8m1.5-8v9m1.5-9v9m1.5-9v8" stroke="#E8E3E3"/><path d="M74 24h5m-3.5-5h2" stroke="#DBB83B"/><path d="M72.5 5.5V8h1v2h1v2.5h1v4h1V19" stroke="#665F47"/></svg>
